Newaita-dark/apps/48/baka-mplayer.svg

<svg height="48pt" viewBox="0 0 48 48" width="48pt" xmlns="http://www.w3.org/2000/svg" xmlns:xlink="http://www.w3.org/1999/xlink"><linearGradient id="a"><stop offset="0" stop-opacity=".313725"/><stop offset=".222222" stop-opacity=".27451"/><stop offset="1" stop-opacity="0"/></linearGradient><radialGradient id="b" cx="450.908936" cy="189.579361" gradientTransform="matrix(.00000026 -.117199 -.210958 -.00000015 65.296304 95.392994)" gradientUnits="userSpaceOnUse" r="21.166656" xlink:href="#a"/><radialGradient id="c" cx="450.908936" cy="189.579361" gradientTransform="matrix(-.00000026 .117199 .210958 .00000015 -17.666755 -11.291223)" gradientUnits="userSpaceOnUse" r="21.166656" xlink:href="#a"/><radialGradient id="d" cx="450.908936" cy="189.579361" gradientTransform="matrix(-.00000026 -.117199 .210958 -.00000015 -17.666755 95.392994)" gradientUnits="userSpaceOnUse" r="21.166656" xlink:href="#a"/><radialGradient id="e" cx="450.908936" cy="189.579361" gradientTransform="matrix(.00000026 .117199 -.210958 .00000015 65.296302 -11.291224)" gradientUnits="userSpaceOnUse" r="21.166656" xlink:href="#a"/><linearGradient id="f" gradientTransform="matrix(.0200401 0 0 .093759 18.698079 20.158175)" gradientUnits="userSpaceOnUse" x1="255.323059" x2="255.323044" y1="233.5" y2="254.666656"><stop offset="0" stop-opacity=".27451"/><stop offset="1" stop-opacity="0"/></linearGradient><linearGradient id="g" gradientUnits="userSpaceOnUse" x1="23.8147608" x2="23.8147608" y1="9.30558049908" y2="42.0508757"><stop offset="0" stop-color="#616161"/><stop offset="1" stop-color="#424242"/></linearGradient><linearGradient id="h"><stop offset="0" stop-color="#e0e0e0"/><stop offset="1" stop-color="#eee"/></linearGradient><linearGradient id="i" gradientUnits="userSpaceOnUse" x1="254" x2="254" xlink:href="#h" y1="196.458061" y2="138.249733"/><linearGradient id="j" gradientUnits="userSpaceOnUse" x1="169.333328" x2="169.333328" xlink:href="#h" y1="117.083344" y2="-31.083334"/><linearGradient id="k" gradientUnits="userSpaceOnUse" x1="338.666672" x2="338.666672" xlink:href="#h" y1="117.083344" y2="-31.083334"/><path d="m25.800781 42.050781h3.96875v-1.984375h-3.96875zm0 0" fill="url(#b)"/><path d="m21.832031 42.050781h-3.972656v1.984375h3.972656zm0 0" fill="url(#c)"/><path d="m21.832031 42.050781h-3.972656v-1.984375h3.972656zm0 0" fill="url(#d)"/><path d="m25.800781 42.050781h3.96875v1.984375h-3.96875zm0 0" fill="url(#e)"/><path d="m21.832031 41.554688h3.96875v2.480468h-3.96875zm0 0" fill="url(#f)"/><path d="m8.699219 4.5625c-5.226563.03125-1.578125 17.691406-1.207031 22.390625.644531 8.46875 7.679687 15.097656 16.324218 15.097656 8.640625 0 15.675782-6.628906 16.324219-15.097656.371094-4.699219 4.015625-22.359375-1.210937-22.390625-2.667969-.007812-7.507813 2.382812-11.351563 5.175781-1.207031-.285156-2.46875-.433593-3.761719-.433593-1.296875 0-2.554687.148437-3.765625.433593-3.84375-2.792969-8.683593-5.183593-11.351562-5.175781zm0 0" fill="url(#g)"/><path d="m8.699219 4.5625c-2.183594.011719-2.820313 3.105469-2.789063 7.046875.027344-3.695313.699219-6.527344 2.789063-6.539063 2.667969-.007812 7.507812 2.382813 11.351562 5.175782 1.210938-.285156 2.46875-.433594 3.765625-.433594 1.292969 0 2.554688.148438 3.761719.433594 3.84375-2.792969 8.683594-5.183594 11.351563-5.175782 2.089843.011719 2.761718 2.84375 2.789062 6.539063.03125-3.941406-.605469-7.035156-2.789062-7.046875-2.667969-.007812-7.507813 2.382812-11.351563 5.175781-1.207031-.285156-2.46875-.433593-3.761719-.433593-1.296875 0-2.554687.148437-3.765625.433593-3.84375-2.792969-8.683593-5.183593-11.351562-5.175781zm0 0" fill="#fff" fill-opacity=".392157"/><path d="m5.910156 10.941406c-.070312 5.558594 1.355469 13.164063 1.582032 16.011719.644531 8.46875 7.679687 15.097656 16.324218 15.097656 8.640625 0 15.675782-6.628906 16.324219-15.097656.222656-2.847656 1.648437-10.453125 1.578125-16.011719-.066406 5.460938-1.367188 12.457032-1.578125 15.160156-.648437 8.472657-7.683594 15.101563-16.324219 15.101563-8.644531 0-15.679687-6.628906-16.324218-15.101563-.214844-2.703124-1.511719-9.699218-1.582032-15.160156zm0 0" fill-opacity=".235294"/><path d="m8.699219 4.421875c-.691407.003906-1.253907.308594-1.675781.832031-.421876.519532-.710938 1.25-.90625 2.128906-.394532 1.757813-.414063 4.121094-.261719 6.632813.304687 5.019531 1.3125 10.621094 1.496093 12.949219v-.003906c.648438 8.542968 7.75 15.230468 16.464844 15.230468 8.710938 0 15.8125-6.6875 16.460938-15.230468v.003906c.1875-2.328125 1.191406-7.929688 1.496094-12.949219.152343-2.511719.132812-4.875-.261719-6.632813-.195313-.878906-.484375-1.609374-.90625-2.128906-.417969-.523437-.984375-.828125-1.675781-.832031-1.375-.003906-3.261719.601563-5.292969 1.550781-2.015625.941406-4.175781 2.226563-6.089844 3.613282-1.199219-.273438-2.449219-.421876-3.730469-.421876-1.285156 0-2.535156.148438-3.734375.421876-1.914062-1.386719-4.070312-2.671876-6.085937-3.613282-2.035156-.949218-3.921875-1.554687-5.296875-1.550781zm.003906.28125c1.289063-.003906 3.15625.582031 5.171875 1.523437 2.015625.941407 4.179688 2.234376 6.09375 3.625l.054688.035157.0625-.011719c1.195312-.28125 2.445312-.429688 3.730468-.429688 1.28125 0 2.53125.148438 3.730469.429688l.0625.011719.050781-.035157c1.914063-1.390624 4.078125-2.683593 6.09375-3.625 2.015625-.941406 3.882813-1.527343 5.175782-1.523437.613281.003906 1.078124.257813 1.457031.726563.378906.46875.660156 1.160156.851562 2.015624.382813 1.707032.40625 4.054688.253907 6.550782-.304688 4.996094-1.304688 10.574218-1.492188 12.945312-.640625 8.398438-7.617188 14.96875-16.183594 14.96875-8.570312 0-15.546875-6.570312-16.1875-14.96875-.183594-2.371094-1.1875-7.949218-1.492187-12.945312-.152344-2.496094-.128907-4.84375.253906-6.550782.191406-.855468.472656-1.546874.851563-2.015624.378906-.46875.84375-.722657 1.460937-.726563zm0 0" fill="#212121"/><g stroke="#212121" stroke-linecap="round" stroke-linejoin="round" stroke-width="3"><path d="m254.017409 138.257932c-23.456093 0-42.370954 10.623986-42.370954 23.789395v2.749738c0 .041662.041663.041662.041663.083325.083326 17.498329 18.914861 31.580317 42.329291 31.580317 23.372768 0 42.204303-14.081988 42.329291-31.580317 0-.041663 0-.041663 0-.083325v-2.749738c0-13.165409-18.873197-23.789395-42.329291-23.789395zm0 0" fill="url(#i)" transform="matrix(.093759 0 0 .093759 0 20.158175)"/><path d="m169.317164-31.100895c-41.037747 0-74.076259 33.038512-74.076259 74.117922 0 41.037748 33.038512 74.07626 74.076259 74.07626 41.037748 0 74.117922-33.038512 74.117922-74.07626 0-41.07941-33.080174-74.117922-74.117922-74.117922zm0 31.746968c23.456094 0 42.329291 18.914861 42.329291 42.370954 0 23.456094-18.873197 42.329291-42.329291 42.329291-23.456093 0-42.329291-18.873197-42.329291-42.329291 0-23.456093 18.873198-42.370954 42.329291-42.370954zm0 0" fill="url(#j)" transform="matrix(.093759 0 0 .093759 0 20.158175)"/><path d="m338.675991-31.100895c-41.037747 0-74.076259 33.038512-74.076259 74.117922 0 41.037748 33.038512 74.07626 74.076259 74.07626 41.037748 0 74.07626-33.038512 74.07626-74.07626 0-41.07941-33.038512-74.117922-74.07626-74.117922zm0 31.746968c23.456094 0 42.329291 18.914861 42.329291 42.370954 0 23.456094-18.873197 42.329291-42.329291 42.329291-23.456093 0-42.329291-18.873197-42.329291-42.329291 0-23.456093 18.873198-42.370954 42.329291-42.370954zm0 0" fill="url(#k)" transform="matrix(.093759 0 0 .093759 0 20.158175)"/></g></svg>

<?xml version="1.0" encoding="UTF-8"?>
<svg xmlns="http://www.w3.org/2000/svg" xmlns:xlink="http://www.w3.org/1999/xlink" width="48pt" height="48pt" viewBox="0 0 48 48" version="1.1">
<defs>
<radialGradient id="radial0" gradientUnits="userSpaceOnUse" cx="450.908936" cy="189.579361" fx="450.908936" fy="189.579361" r="21.166656" gradientTransform="matrix(0.000000261256,-0.117199,-0.210958,-0.000000152308,65.296304,95.392994)">
<stop offset="0" style="stop-color:rgb(0%,0%,0%);stop-opacity:0.313725;"/>
<stop offset="0.222222" style="stop-color:rgb(0%,0%,0%);stop-opacity:0.27451;"/>
<stop offset="1" style="stop-color:rgb(0%,0%,0%);stop-opacity:0;"/>
</radialGradient>
<radialGradient id="radial1" gradientUnits="userSpaceOnUse" cx="450.908936" cy="189.579361" fx="450.908936" fy="189.579361" r="21.166656" gradientTransform="matrix(-0.000000261256,0.117199,0.210958,0.000000152308,-17.666755,-11.291223)">
<stop offset="0" style="stop-color:rgb(0%,0%,0%);stop-opacity:0.313725;"/>
<stop offset="0.222222" style="stop-color:rgb(0%,0%,0%);stop-opacity:0.27451;"/>
<stop offset="1" style="stop-color:rgb(0%,0%,0%);stop-opacity:0;"/>
</radialGradient>
<radialGradient id="radial2" gradientUnits="userSpaceOnUse" cx="450.908936" cy="189.579361" fx="450.908936" fy="189.579361" r="21.166656" gradientTransform="matrix(-0.000000261256,-0.117199,0.210958,-0.000000152308,-17.666755,95.392994)">
<stop offset="0" style="stop-color:rgb(0%,0%,0%);stop-opacity:0.313725;"/>
<stop offset="0.222222" style="stop-color:rgb(0%,0%,0%);stop-opacity:0.27451;"/>
<stop offset="1" style="stop-color:rgb(0%,0%,0%);stop-opacity:0;"/>
</radialGradient>
<radialGradient id="radial3" gradientUnits="userSpaceOnUse" cx="450.908936" cy="189.579361" fx="450.908936" fy="189.579361" r="21.166656" gradientTransform="matrix(0.000000261256,0.117199,-0.210958,0.000000152308,65.296302,-11.291224)">
<stop offset="0" style="stop-color:rgb(0%,0%,0%);stop-opacity:0.313725;"/>
<stop offset="0.222222" style="stop-color:rgb(0%,0%,0%);stop-opacity:0.27451;"/>
<stop offset="1" style="stop-color:rgb(0%,0%,0%);stop-opacity:0;"/>
</radialGradient>
<linearGradient id="linear0" gradientUnits="userSpaceOnUse" x1="255.323059" y1="233.5" x2="255.323044" y2="254.666656" gradientTransform="matrix(0.0200401,0,0,0.093759,18.698079,20.158175)">
<stop offset="0" style="stop-color:rgb(0%,0%,0%);stop-opacity:0.27451;"/>
<stop offset="1" style="stop-color:rgb(0%,0%,0%);stop-opacity:0;"/>
</linearGradient>
<linearGradient id="linear1" gradientUnits="userSpaceOnUse" x1="254" y1="-168.666672" x2="254" y2="233.5" gradientTransform="matrix(0.0814222,0,0,0.0814222,3.133522,23.038792)">
<stop offset="0" style="stop-color:rgb(38.039216%,38.039216%,38.039216%);stop-opacity:1;"/>
<stop offset="1" style="stop-color:rgb(25.882353%,25.882353%,25.882353%);stop-opacity:1;"/>
</linearGradient>
<linearGradient id="linear2" gradientUnits="userSpaceOnUse" x1="254" y1="212.333328" x2="254" y2="154.125" gradientTransform="matrix(1,0,0,1,0,-15.875267)">
<stop offset="0" style="stop-color:rgb(87.843137%,87.843137%,87.843137%);stop-opacity:1;"/>
<stop offset="1" style="stop-color:rgb(93.333333%,93.333333%,93.333333%);stop-opacity:1;"/>
</linearGradient>
<linearGradient id="linear3" gradientUnits="userSpaceOnUse" x1="169.333328" y1="117.083344" x2="169.333328" y2="-31.083334" gradientTransform="matrix(1,0,0,1,0,0)">
<stop offset="0" style="stop-color:rgb(87.843137%,87.843137%,87.843137%);stop-opacity:1;"/>
<stop offset="1" style="stop-color:rgb(93.333333%,93.333333%,93.333333%);stop-opacity:1;"/>
</linearGradient>
<linearGradient id="linear4" gradientUnits="userSpaceOnUse" x1="169.333328" y1="117.083344" x2="169.333328" y2="-31.083334" gradientTransform="matrix(1,0,0,1,169.333344,0)">
<stop offset="0" style="stop-color:rgb(87.843137%,87.843137%,87.843137%);stop-opacity:1;"/>
<stop offset="1" style="stop-color:rgb(93.333333%,93.333333%,93.333333%);stop-opacity:1;"/>
</linearGradient>
</defs>
<g id="surface1">
<path style=" stroke:none;fill-rule:nonzero;fill:url(#radial0);" d="M 25.800781 42.050781 L 29.769531 42.050781 L 29.769531 40.066406 L 25.800781 40.066406 Z M 25.800781 42.050781 "/>
<path style=" stroke:none;fill-rule:nonzero;fill:url(#radial1);" d="M 21.832031 42.050781 L 17.859375 42.050781 L 17.859375 44.035156 L 21.832031 44.035156 Z M 21.832031 42.050781 "/>
<path style=" stroke:none;fill-rule:nonzero;fill:url(#radial2);" d="M 21.832031 42.050781 L 17.859375 42.050781 L 17.859375 40.066406 L 21.832031 40.066406 Z M 21.832031 42.050781 "/>
<path style=" stroke:none;fill-rule:nonzero;fill:url(#radial3);" d="M 25.800781 42.050781 L 29.769531 42.050781 L 29.769531 44.035156 L 25.800781 44.035156 Z M 25.800781 42.050781 "/>
<path style=" stroke:none;fill-rule:nonzero;fill:url(#linear0);" d="M 21.832031 41.554688 L 25.800781 41.554688 L 25.800781 44.035156 L 21.832031 44.035156 Z M 21.832031 41.554688 "/>
<path style=" stroke:none;fill-rule:nonzero;fill:url(#linear1);" d="M 8.699219 4.5625 C 3.472656 4.59375 7.121094 22.253906 7.492188 26.953125 C 8.136719 35.421875 15.171875 42.050781 23.816406 42.050781 C 32.457031 42.050781 39.492188 35.421875 40.140625 26.953125 C 40.511719 22.253906 44.15625 4.59375 38.929688 4.5625 C 36.261719 4.554688 31.421875 6.945312 27.578125 9.738281 C 26.371094 9.453125 25.109375 9.304688 23.816406 9.304688 C 22.519531 9.304688 21.261719 9.453125 20.050781 9.738281 C 16.207031 6.945312 11.367188 4.554688 8.699219 4.5625 Z M 8.699219 4.5625 "/>
<path style=" stroke:none;fill-rule:nonzero;fill:rgb(100%,100%,100%);fill-opacity:0.392157;" d="M 8.699219 4.5625 C 6.515625 4.574219 5.878906 7.667969 5.910156 11.609375 C 5.9375 7.914062 6.609375 5.082031 8.699219 5.070312 C 11.367188 5.0625 16.207031 7.453125 20.050781 10.246094 C 21.261719 9.960938 22.519531 9.8125 23.816406 9.8125 C 25.109375 9.8125 26.371094 9.960938 27.578125 10.246094 C 31.421875 7.453125 36.261719 5.0625 38.929688 5.070312 C 41.019531 5.082031 41.691406 7.914062 41.71875 11.609375 C 41.75 7.667969 41.113281 4.574219 38.929688 4.5625 C 36.261719 4.554688 31.421875 6.945312 27.578125 9.738281 C 26.371094 9.453125 25.109375 9.304688 23.816406 9.304688 C 22.519531 9.304688 21.261719 9.453125 20.050781 9.738281 C 16.207031 6.945312 11.367188 4.554688 8.699219 4.5625 Z M 8.699219 4.5625 "/>
<path style=" stroke:none;fill-rule:nonzero;fill:rgb(0%,0%,0%);fill-opacity:0.235294;" d="M 5.910156 10.941406 C 5.839844 16.5 7.265625 24.105469 7.492188 26.953125 C 8.136719 35.421875 15.171875 42.050781 23.816406 42.050781 C 32.457031 42.050781 39.492188 35.421875 40.140625 26.953125 C 40.363281 24.105469 41.789062 16.5 41.71875 10.941406 C 41.652344 16.402344 40.351562 23.398438 40.140625 26.101562 C 39.492188 34.574219 32.457031 41.203125 23.816406 41.203125 C 15.171875 41.203125 8.136719 34.574219 7.492188 26.101562 C 7.277344 23.398438 5.980469 16.402344 5.910156 10.941406 Z M 5.910156 10.941406 "/>
<path style=" stroke:none;fill-rule:nonzero;fill:rgb(12.941177%,12.941177%,12.941177%);fill-opacity:1;" d="M 8.699219 4.421875 C 8.007812 4.425781 7.445312 4.730469 7.023438 5.253906 C 6.601562 5.773438 6.3125 6.503906 6.117188 7.382812 C 5.722656 9.140625 5.703125 11.503906 5.855469 14.015625 C 6.160156 19.035156 7.167969 24.636719 7.351562 26.964844 L 7.351562 26.960938 C 8 35.503906 15.101562 42.191406 23.816406 42.191406 C 32.527344 42.191406 39.628906 35.503906 40.277344 26.960938 L 40.277344 26.964844 C 40.464844 24.636719 41.46875 19.035156 41.773438 14.015625 C 41.925781 11.503906 41.90625 9.140625 41.511719 7.382812 C 41.316406 6.503906 41.027344 5.773438 40.605469 5.253906 C 40.1875 4.730469 39.621094 4.425781 38.929688 4.421875 C 37.554688 4.417969 35.667969 5.023438 33.636719 5.972656 C 31.621094 6.914062 29.460938 8.199219 27.546875 9.585938 C 26.347656 9.3125 25.097656 9.164062 23.816406 9.164062 C 22.53125 9.164062 21.28125 9.3125 20.082031 9.585938 C 18.167969 8.199219 16.011719 6.914062 13.996094 5.972656 C 11.960938 5.023438 10.074219 4.417969 8.699219 4.421875 Z M 8.703125 4.703125 C 9.992188 4.699219 11.859375 5.285156 13.875 6.226562 C 15.890625 7.167969 18.054688 8.460938 19.96875 9.851562 L 20.023438 9.886719 L 20.085938 9.875 C 21.28125 9.59375 22.53125 9.445312 23.816406 9.445312 C 25.097656 9.445312 26.347656 9.59375 27.546875 9.875 L 27.609375 9.886719 L 27.660156 9.851562 C 29.574219 8.460938 31.738281 7.167969 33.753906 6.226562 C 35.769531 5.285156 37.636719 4.699219 38.929688 4.703125 C 39.542969 4.707031 40.007812 4.960938 40.386719 5.429688 C 40.765625 5.898438 41.046875 6.589844 41.238281 7.445312 C 41.621094 9.152344 41.644531 11.5 41.492188 13.996094 C 41.1875 18.992188 40.1875 24.570312 40 26.941406 C 39.359375 35.339844 32.382812 41.910156 23.816406 41.910156 C 15.246094 41.910156 8.269531 35.339844 7.628906 26.941406 C 7.445312 24.570312 6.441406 18.992188 6.136719 13.996094 C 5.984375 11.5 6.007812 9.152344 6.390625 7.445312 C 6.582031 6.589844 6.863281 5.898438 7.242188 5.429688 C 7.621094 4.960938 8.085938 4.707031 8.703125 4.703125 Z M 8.703125 4.703125 "/>
<path style="fill-rule:nonzero;fill:url(#linear2);stroke-width:3;stroke-linecap:round;stroke-linejoin:round;stroke:rgb(12.941177%,12.941177%,12.941177%);stroke-opacity:1;stroke-miterlimit:4;" d="M 254.017409 138.257932 C 230.561316 138.257932 211.646455 148.881918 211.646455 162.047327 L 211.646455 164.797065 C 211.646455 164.838727 211.688118 164.838727 211.688118 164.88039 C 211.771444 182.378719 230.602979 196.460707 254.017409 196.460707 C 277.390177 196.460707 296.221712 182.378719 296.3467 164.88039 C 296.3467 164.838727 296.3467 164.838727 296.3467 164.797065 L 296.3467 162.047327 C 296.3467 148.881918 277.473503 138.257932 254.017409 138.257932 Z M 254.017409 138.257932 " transform="matrix(0.093759,0,0,0.093759,0,20.158175)"/>
<path style="fill-rule:nonzero;fill:url(#linear3);stroke-width:3;stroke-linecap:round;stroke-linejoin:round;stroke:rgb(12.941177%,12.941177%,12.941177%);stroke-opacity:1;stroke-miterlimit:4;" d="M 169.317164 -31.100895 C 128.279417 -31.100895 95.240905 1.937617 95.240905 43.017027 C 95.240905 84.054775 128.279417 117.093287 169.317164 117.093287 C 210.354912 117.093287 243.435086 84.054775 243.435086 43.017027 C 243.435086 1.937617 210.354912 -31.100895 169.317164 -31.100895 Z M 169.317164 0.646073 C 192.773258 0.646073 211.646455 19.560934 211.646455 43.017027 C 211.646455 66.473121 192.773258 85.346318 169.317164 85.346318 C 145.861071 85.346318 126.987873 66.473121 126.987873 43.017027 C 126.987873 19.560934 145.861071 0.646073 169.317164 0.646073 Z M 169.317164 0.646073 " transform="matrix(0.093759,0,0,0.093759,0,20.158175)"/>
<path style="fill-rule:nonzero;fill:url(#linear4);stroke-width:3;stroke-linecap:round;stroke-linejoin:round;stroke:rgb(12.941177%,12.941177%,12.941177%);stroke-opacity:1;stroke-miterlimit:4;" d="M 338.675991 -31.100895 C 297.638244 -31.100895 264.599732 1.937617 264.599732 43.017027 C 264.599732 84.054775 297.638244 117.093287 338.675991 117.093287 C 379.713739 117.093287 412.752251 84.054775 412.752251 43.017027 C 412.752251 1.937617 379.713739 -31.100895 338.675991 -31.100895 Z M 338.675991 0.646073 C 362.132085 0.646073 381.005282 19.560934 381.005282 43.017027 C 381.005282 66.473121 362.132085 85.346318 338.675991 85.346318 C 315.219898 85.346318 296.3467 66.473121 296.3467 43.017027 C 296.3467 19.560934 315.219898 0.646073 338.675991 0.646073 Z M 338.675991 0.646073 " transform="matrix(0.093759,0,0,0.093759,0,20.158175)"/>
</g>
</svg>
